public/assets/images/watch.svg

<svg fill="none" height="20" viewBox="0 0 20 20" width="20" xmlns="http://www.w3.org/2000/svg"><path d="m10 20c-.9085 0-1.78595-.1193-2.63235-.3578-.84641-.2386-1.64216-.5785-2.38726-1.0197-.7451-.4411-1.42157-.9656-2.02941-1.5735-.60784-.6078-1.13235-1.2843-1.57353-2.0294-.441175-.7451-.781045-1.5408-1.019607-2.3872-.238562-.8465-.357843-1.7239-.357843-2.6324 0-.91503.119281-1.79412.357843-2.63726.238562-.84313.576798-1.63725 1.014707-2.38235.43791-.7451.96078-1.42157 1.56863-2.02941.60784-.60784 1.28431-1.13235 2.02941-1.57353.7451-.441176 1.54085-.781045 2.38725-1.019609.84641-.238561 1.72386-.357841 2.63236-.357841.915 0 1.7957.11928 2.6422.357841.8464.238564 1.6405.578433 2.3823 1.019609.7418.44118 1.4183.96569 2.0294 1.57353s1.1373 1.28431 1.5784 2.02941c.4412.7451.7811 1.53922 1.0197 2.38235.2385.84314.3578 1.72223.3578 2.63726 0 .9085-.1193 1.7859-.3578 2.6324-.2386.8464-.5785 1.6421-1.0197 2.3872-.4411.7451-.9656 1.4216-1.5735 2.0294-.6078.6079-1.2843 1.1324-2.0294 1.5735-.7451.4412-1.5392.7811-2.3823 1.0197-.8432.2385-1.7223.3578-2.6373.3578zm0-1.6667c.9281 0 1.8088-.1389 2.6422-.4166.8333-.2778 1.5964-.6716 2.2892-1.1814s1.2941-1.1111 1.8039-1.8039.9036-1.4559 1.1814-2.2892c.2777-.8334.4166-1.7141.4166-2.6422 0-.92811-.1405-1.80882-.4215-2.64216-.2811-.83333-.6765-1.5964-1.1863-2.28921s-1.1111-1.29412-1.8039-1.80392c-.6928-.50981-1.4559-.9036-2.2892-1.18138-.8334-.27777-1.7141-.41666-2.6422-.41666-.92811 0-1.80719.13889-2.63726.41666-.83006.27778-1.5915.67157-2.28431 1.18138-.69281.5098-1.29249 1.11111-1.79902 1.80392-.50654.69281-.89869 1.45588-1.17647 2.28921-.27778.83334-.41667 1.71405-.41667 2.64216 0 .9281.13889 1.8088.41667 2.6422.27778.8333.66993 1.5964 1.17647 2.2892.50653.6928 1.10621 1.2941 1.79902 1.8039s1.45588.9036 2.28921 1.1814c.83334.2777 1.71406.4166 2.64216.4166zm-1.72549-4.7255c-.14379.085-.28595.1226-.42647.1128s-.25817-.0605-.35294-.152-.14216-.2091-.14216-.3529v-6.42158c0-.15033.04902-.26798.14706-.35294.09804-.08497.21895-.13236.36275-.14216.14379-.0098.28104.02451.41176.10294l5.25489 3.10784c.1242.0719.2075.17157.25.29902s.0441.25488.0049.38238c-.0392.1274-.1242.2304-.2549.3088z" fill="#2997ff"/></svg>

<svg
              width="20"
              height="20"
              viewBox="0 0 20 20"
              fill="none"
              xmlns="http://www.w3.org/2000/svg"
              className="ml-2"
            >
              <path
                d="M10 20C9.0915 20 8.21405 19.8807 7.36765 19.6422C6.52124 19.4036 5.72549 19.0637 4.98039 18.6225C4.23529 18.1814 3.55882 17.6569 2.95098 17.049C2.34314 16.4412 1.81863 15.7647 1.37745 15.0196C0.936275 14.2745 0.596405 13.4788 0.357843 12.6324C0.119281 11.7859 0 10.9085 0 10C0 9.08497 0.119281 8.20588 0.357843 7.36274C0.596405 6.51961 0.934641 5.72549 1.37255 4.98039C1.81046 4.23529 2.33333 3.55882 2.94118 2.95098C3.54902 2.34314 4.22549 1.81863 4.97059 1.37745C5.71569 0.936274 6.51144 0.596405 7.35784 0.357841C8.20425 0.11928 9.0817 0 9.9902 0C10.9052 0 11.7859 0.11928 12.6324 0.357841C13.4788 0.596405 14.2729 0.936274 15.0147 1.37745C15.7565 1.81863 16.433 2.34314 17.0441 2.95098C17.6552 3.55882 18.1814 4.23529 18.6225 4.98039C19.0637 5.72549 19.4036 6.51961 19.6422 7.36274C19.8807 8.20588 20 9.08497 20 10C20 10.9085 19.8807 11.7859 19.6422 12.6324C19.4036 13.4788 19.0637 14.2745 18.6225 15.0196C18.1814 15.7647 17.6569 16.4412 17.049 17.049C16.4412 17.6569 15.7647 18.1814 15.0196 18.6225C14.2745 19.0637 13.4804 19.4036 12.6373 19.6422C11.7941 19.8807 10.915 20 10 20ZM10 18.3333C10.9281 18.3333 11.8088 18.1944 12.6422 17.9167C13.4755 17.6389 14.2386 17.2451 14.9314 16.7353C15.6242 16.2255 16.2255 15.6242 16.7353 14.9314C17.2451 14.2386 17.6389 13.4755 17.9167 12.6422C18.1944 11.8088 18.3333 10.9281 18.3333 10C18.3333 9.07189 18.1928 8.19118 17.9118 7.35784C17.6307 6.52451 17.2353 5.76144 16.7255 5.06863C16.2157 4.37582 15.6144 3.77451 14.9216 3.26471C14.2288 2.7549 13.4657 2.36111 12.6324 2.08333C11.799 1.80556 10.9183 1.66667 9.9902 1.66667C9.06209 1.66667 8.18301 1.80556 7.35294 2.08333C6.52288 2.36111 5.76144 2.7549 5.06863 3.26471C4.37582 3.77451 3.77614 4.37582 3.26961 5.06863C2.76307 5.76144 2.37092 6.52451 2.09314 7.35784C1.81536 8.19118 1.67647 9.07189 1.67647 10C1.67647 10.9281 1.81536 11.8088 2.09314 12.6422C2.37092 13.4755 2.76307 14.2386 3.26961 14.9314C3.77614 15.6242 4.37582 16.2255 5.06863 16.7353C5.76144 17.2451 6.52451 17.6389 7.35784 17.9167C8.19118 18.1944 9.0719 18.3333 10 18.3333ZM8.27451 13.6078C8.13072 13.6928 7.98856 13.7304 7.84804 13.7206C7.70752 13.7108 7.58987 13.6601 7.4951 13.5686C7.40033 13.4771 7.35294 13.3595 7.35294 13.2157V6.79412C7.35294 6.64379 7.40196 6.52614 7.5 6.44118C7.59804 6.35621 7.71895 6.30882 7.86275 6.29902C8.00654 6.28922 8.14379 6.32353 8.27451 6.40196L13.5294 9.5098C13.6536 9.5817 13.7369 9.68137 13.7794 9.80882C13.8219 9.93627 13.8235 10.0637 13.7843 10.1912C13.7451 10.3186 13.6601 10.4216 13.5294 10.5L8.27451 13.6078Z"
                fill="#2997FF"
              />
            </svg>
